!!!COM: Hugo Wolf
!!!CNT: Deutscher
!!!TXO: Deutsche 
!!!OTL: Waldma2dchen
!!!ODT: 1887/04/20
!!!ONM: No. 20
!!!LYR: Joseph von Eichendorff
!!!ENC: Brian Bice
!!!YOR: 45 Songs on Poems of Goethe and Eichendorff, Dover Publications, 1995
!!NB: Vocal melody and text only encoded.
**kern	**silbe
*clefG2	*
*k[f#]	*
*M4/16	*
=4	=4
8r	.
{16dd	{Bin
16dd	ein
=5	=5
16.gg	Feu-
32gg	-er
16cc#	hell,
16cc#	das
=6	=6
16dd	lo-
16dd	-dert
16gg	von
16aa	dem
=7	=7
16.bb	gru2-
32bb	-nen
16cc#	Fel-
16cc#	-sen-
=8	=8
8dd}	-kranz,}
{16ee	{See-
16ff#	-wind
=9	=9
16dd	ist
16dd	mein
16gg	Buhl'
16gg	und
=10	=10
16.bb	for-
32cc#	-dert
16dd	mich
16ee	zum
=11	=11
16.ff#	lust'-
32gg	-gen
16.ff#	Wir-
32gg	-bel-
=12	=12
[4ff	-tanz,
=13	=13
4ff_	|
=14	=14
4ff_	|
=15	=15
4ff_	|
=16	=16
16ff]}	|}
16r	.
8r	.
=17	=17
{(24cc	{kommt
24b)	|
24a	und
(24cc	wech-
24b)	|
24a	-selt
=18	=18
(24cc	un-
24ee)	|
24dd	-be-
(24cc	-sta2n-
24b)	|
24a#	-dig,
=19	=19
(24b	stei-
24cc)	|
24cc#	-gend
(12dd	wild,
24cc#)	|
=20	=20
(24ccn	nei-
24dd)	|
24ee	-gend
(12ff#	mild,
24ee)}	|}
=21	=21
{(24dd	{mei-
24ee)	|
24ff	-ne
16gg	schlan-
16gg	-ken
=22	=22
16b	Lo-
16cc	-hen
(24cc#	wend
24dd)	|
24dd	'ich
=23	=23
(24b	komm
24a)	|
24g	nicht
16ee-	nah'
16ee-	mir,
=24;	=24
16r	.
8f#	ich
16f#	ver-
=25	=25
16a	-brenn'
16g}	dich!}
8r	.
=43	=43
{8.b	{Wo
16b	die
=44	=44
8ee	wil-
8ee	-den
=45	=45
8.gg	Ba2-
16gg	-che
=46	=46
8ff#	rau-
8ee}	-schen}
=47	=47
{8.b	{und
16b	die
=48	=48
8a	ho-
8g	-hen
=49	=49
8f#	Pal-
8e	-men
=50	=50
4dd#}	stehn,}
=51	=51
{8.b	{wenn
16b	die
=52	=52
8ee	Ja2-
8ee	-ger
=53	=53
8.gg	heim-
16gg	-lich
=54	=54
8ff#	lau-
8ee}	-schen,}
=55	=55
{8.ee-	{vie-
16ffn	-le
=56	=56
8ee-	Re-
8dd-	-he
=57	=57
8cc	ein-
8b-	-sam
=58	=58
[4cc	gehn.
=59	=59
4cc_	|
=60	=60
8cc]}	|}
8r	.
=62	=62
8r	.
{(24cc	{Bin
24b-)	|
24a	ein
=63	=63
16dd-	Reh,
16cc	flieg'
(24b-	durch
24cc)	|
24dd-	die
=64	=64
16ee-	Tru2m-
16ee-	-mer,
24ee-	u2-
24dd-	-ber
24cc	die
=65	=65
(12ffn	Ho2h',
24ee-)	|
(24dd-	wo
24ee-)	|
24een	im
=66	=66
(12ffn	Schnee
24ee-)}	|}
{(24ddn	{still
24ee-)	|
24ff	die
=67	=67
8.ff#	letz-
16ff#	-ten
=68	=68
(16ff#	Gip-
8gg#)	|
16ff#	-fel
=69	=69
(16ee#	schim-
8een)	|
16dd#	-mern,
=70	=70
16r	.
8cc#	folg'
16gg#	mir
=71	=71
4ff#	nicht,
=72	=72
16r	.
16b	er-
16.dd#	-jagst
32a#	mich
=73	=73
16cc#	nim-
16b}	-mer!}
8r	.
=90	=90
8r	.
{16dd	{Bin
16dd	ein
=91	=91
16.gg	Vo2g-
32gg	-lein
16cc#	in
16cc#	den
=92	=92
16dd	Lu2f-
16dd	-ten,
16g	schwing'
16a	mich
=93	=93
16b	u2-
16b	-bers
16cc#	blau-
16cc#	-e
=94	=94
8dd}	Meer,}
{16ee	{durch
16ff#	die
=95	=95
16dd	Wol-
16dd	-ken
16gg	von
16gg	den
=96	=96
16b	Klu2f-
16cc#	-ten
16dd	fliegt
16ee	kein
=97	=97
16.ff#	Pfeil
32gg	mehr
16.ff#	bis
32gg	hie-
=98	=98
[4ff	-her.
=99	=99
4ff_	|
=100	=100
4ff_	|
=101	=101
4ff_	|
=102	=102
16ff]}	|}
16r	.
8r	.
=103	=103
{16a	{Und
16a	die
[8cc	Au'n
=104	=104
16cc]	|
16cc	die
[8ee	Fel-
=105	=105
16ee]	|
16ee	-sen-
[8dd	-bo-
=106	=106
16dd]	|
16cc}	-gen,}
{[8ff#	{Wal-
=107	=107
16ff#]	|
16ff#	-des-
[8ffn	-ein
=108	=108
8.ffn]	|
16ffn	-sam-
=109	=109
8ee	-leit
[8gg	weit,
=110	=110
8.gg]	|
16ffn	wie
=111	=111
([4ee	weit,
=112	=112
16ee]	|
16dd)}	|}
{16cc	{sind
16a-	ver-
=113	=113
8.g	-sun-
([16ee	-ken
=114	=114
16ee]	|
16dd)	|
16cc	in
16g#	die
=115	=115
[4a	Wo-
=116	=116
4a_	|
=117	=117
(8a]	|
[8ee)	|
=118	=118
8ee]	|
8ee-}	-gen.}
=120	=120
16r	.
{8dd	{ach,
16r	.
=121	=121
8r	.
16.r	.
32cc#	ich
=122	=122
16ccn	ha-
16b	-be
(24a	mich
24cc)	|
24b	ver-
=123	=123
16a	-flo-
16g}	-gen!}
8r	.
*-	*-
